svg/plugins.svg

<?xml version="1.0" encoding="UTF-8" standalone="no"?>
<svg
   width="25"
   height="25"
   viewBox="0 0 25 25"
   fill="none"
   version="1.1"
   id="svg4"
   sodipodi:docname="plugins.svg"
   inkscape:version="1.4 (86a8ad7, 2024-10-11)"
   xmlns:inkscape="http://www.inkscape.org/namespaces/inkscape"
   xmlns:sodipodi="http://sodipodi.sourceforge.net/DTD/sodipodi-0.dtd"
   xmlns="http://www.w3.org/2000/svg"
   xmlns:svg="http://www.w3.org/2000/svg">
  <defs
     id="defs4" />
  <sodipodi:namedview
     id="namedview4"
     pagecolor="#ffffff"
     bordercolor="#000000"
     borderopacity="0.25"
     inkscape:showpageshadow="2"
     inkscape:pageopacity="0.0"
     inkscape:pagecheckerboard="0"
     inkscape:deskcolor="#d1d1d1"
     inkscape:zoom="31.32"
     inkscape:cx="12.5"
     inkscape:cy="12.5"
     inkscape:window-width="1920"
     inkscape:window-height="1001"
     inkscape:window-x="-9"
     inkscape:window-y="-9"
     inkscape:window-maximized="1"
     inkscape:current-layer="svg4" />
  <g
     id="g4"
     transform="translate(0.27111,0.1433)">
    <path
       fill-rule="evenodd"
       clip-rule="evenodd"
       d="m 2.22888,6.99085 c 0,-2.55937 2.07478,-4.63415 4.63415,-4.63415 2.55936,0 4.63417,2.07478 4.63417,4.63415 0,2.55936 -2.07481,4.63415 -4.63417,4.63415 -2.55937,0 -4.63415,-2.07479 -4.63415,-4.63415 z"
       fill="#2d2d2d"
       id="path1" />
    <path
       fill-rule="evenodd"
       clip-rule="evenodd"
       d="m 12.9606,17.7226 c 0,-2.5594 2.0748,-4.6342 4.6342,-4.6342 2.5593,0 4.6341,2.0748 4.6341,4.6342 0,2.5593 -2.0748,4.6341 -4.6341,4.6341 -2.5594,0 -4.6342,-2.0748 -4.6342,-4.6341 z"
       fill="#2d2d2d"
       id="path2" />
    <path
       d="m 2.22888,17.8567 c 0,-2.1213 0,-3.182 0.65901,-3.841 0.65901,-0.659 1.71967,-0.659 3.84099,-0.659 2.12132,0 3.18198,0 3.84102,0.659 0.659,0.659 0.659,1.7197 0.659,3.841 0,2.1213 0,3.182 -0.659,3.841 -0.65904,0.659 -1.7197,0.659 -3.84102,0.659 -2.12132,0 -3.18198,0 -3.84099,-0.659 -0.65901,-0.659 -0.65901,-1.7197 -0.65901,-3.841 z"
       fill="#2d2d2d"
       id="path3" />
    <path
       d="m 13.2289,6.8567 c 0,-2.12132 0,-3.18198 0.659,-3.84099 0.659,-0.65901 1.7197,-0.65901 3.841,-0.65901 2.1213,0 3.182,0 3.841,0.65901 0.659,0.65901 0.659,1.71967 0.659,3.84099 0,2.12132 0,3.182 -0.659,3.841 -0.659,0.659 -1.7197,0.659 -3.841,0.659 -2.1213,0 -3.182,0 -3.841,-0.659 -0.659,-0.659 -0.659,-1.71968 -0.659,-3.841 z"
       fill="#2d2d2d"
       id="path4" />
  </g>
</svg>

<svg width="25" height="25" viewBox="0 0 25 25" fill="none" xmlns="http://www.w3.org/2000/svg">
<path fill-rule="evenodd" clip-rule="evenodd" d="M2.22888 6.99085C2.22888 4.43148 4.30366 2.3567 6.86303 2.3567C9.42239 2.3567 11.4972 4.43148 11.4972 6.99085C11.4972 9.55021 9.42239 11.625 6.86303 11.625C4.30366 11.625 2.22888 9.55021 2.22888 6.99085Z" fill="#2D2D2D"/>
<path fill-rule="evenodd" clip-rule="evenodd" d="M12.9606 17.7226C12.9606 15.1632 15.0354 13.0884 17.5948 13.0884C20.1541 13.0884 22.2289 15.1632 22.2289 17.7226C22.2289 20.2819 20.1541 22.3567 17.5948 22.3567C15.0354 22.3567 12.9606 20.2819 12.9606 17.7226Z" fill="#2D2D2D"/>
<path d="M2.22888 17.8567C2.22888 15.7354 2.22888 14.6747 2.88789 14.0157C3.5469 13.3567 4.60756 13.3567 6.72888 13.3567C8.8502 13.3567 9.91086 13.3567 10.5699 14.0157C11.2289 14.6747 11.2289 15.7354 11.2289 17.8567C11.2289 19.978 11.2289 21.0387 10.5699 21.6977C9.91086 22.3567 8.8502 22.3567 6.72888 22.3567C4.60756 22.3567 3.5469 22.3567 2.88789 21.6977C2.22888 21.0387 2.22888 19.978 2.22888 17.8567Z" fill="#2D2D2D"/>
<path d="M13.2289 6.8567C13.2289 4.73538 13.2289 3.67472 13.8879 3.01571C14.5469 2.3567 15.6076 2.3567 17.7289 2.3567C19.8502 2.3567 20.9109 2.3567 21.5699 3.01571C22.2289 3.67472 22.2289 4.73538 22.2289 6.8567C22.2289 8.97802 22.2289 10.0387 21.5699 10.6977C20.9109 11.3567 19.8502 11.3567 17.7289 11.3567C15.6076 11.3567 14.5469 11.3567 13.8879 10.6977C13.2289 10.0387 13.2289 8.97802 13.2289 6.8567Z" fill="#2D2D2D"/>
</svg>
